X: 1430
T: the Scolding Wife
R: reel
B: O'Neill's 1850 #1430
O: F.O'Neill
Z: Bob Safranek, rjs@gsp.org
M: C|
L: 1/8
K: D	% and/or G
|:\
D2 (DE) FEFD | GFGA BGA[Fc] |\
[1 D2 (DE) FEFG | AdcA  GECE :|\
[2 d2 (dg) fdce | fd=cA AG G2 |]
|:\
fdcd    fgaf | gfga bgag |\
[1 fdcd    fgag | fd=cA G2 G2 :|\
[2 bgag    fgag | fd=cA AG G2 |]
